X: 12
T: Miss Sarah Drummond Of Perth
R: strathspey
M: 4/4
L: 1/8
K: Amix
|:A2 e<A (3Bcd e>f|g2 d<g B<g d<B|A2 e<A (3Bcd ef|(3gfe (3dcB (3cde (3dcB |
A2 e<A (3Bcd e>f|g2 d<g B<g d<B|A2 e<A (3Bcd e>f|g>fg<B B<A A2||
|:a2 e<a (3Bcd e>f|g2 d<g B<g d<g|a2 e<a (3Bcd e>f|g>fg<B B<A A2|
a2 e<a (3Bcd e>f|g2 d<g B<g d<g|b>ga>f g>fe<d| (3gfe (3dcB (3cde (3dcB||


Tune 1556	Setting 21858

